findly-builder/apps/searchassist/src/assets/icons/web-mobile.svg

<svg width="51" height="25" viewBox="0 0 51 25" fill="none" xmlns="http://www.w3.org/2000/svg">
<path d="M11.1602 8.85482C11.1602 6.84128 12.7925 5.20898 14.806 5.20898H17.763C19.7765 5.20898 21.4088 6.84128 21.4088 8.85482H11.1602ZM29.6077 8.85482C29.6077 6.84128 31.24 5.20898 33.2536 5.20898H36.2106C38.2241 5.20898 39.8564 6.84128 39.8564 8.85482H29.6077Z" fill="#1565C0"/>
<path d="M7.06055 8.33398H43.9557V19.7923H7.06055V8.33398Z" fill="#2196F3"/>
</svg>

<svg width="51" height="25" fill="none" xmlns="http://www.w3.org/2000/svg"><path d="M11.16 8.855a3.646 3.646 0 0 1 3.646-3.646h2.957a3.646 3.646 0 0 1 3.646 3.646H11.16Zm18.448 0a3.646 3.646 0 0 1 3.646-3.646h2.957a3.646 3.646 0 0 1 3.645 3.646H29.608Z" fill="#1565C0"/><path d="M7.06 8.334h36.896v11.458H7.06V8.334Z" fill="#2196F3"/></svg>
